_src/static/img/sprite/circles-in-frame.svg

<svg width="82" height="90" viewBox="0 0 82 90" fill="none" xmlns="http://www.w3.org/2000/svg">
<path d="M41 90L38.0714 89.1692C21.7551 84.4615 0 74.9769 0 47.0077V10.8692L41 0L41.3486 0.0692308L82 10.8692V46.9385C82 74.9769 60.2449 84.4615 43.9286 89.1L41 90ZM2.78912 13.0154V47.0077C2.78912 73.1769 23.3588 82.1077 38.8384 86.5385L40.9303 87.1615L43.0918 86.5385C58.5714 82.1077 79.1412 73.1769 79.1412 47.0077V13.0154L41 2.83846L2.78912 13.0154Z" fill="#08AF00"/>
<path d="M41.0001 82.3155L40.1633 82.1078C11.1565 73.8001 7.46094 58.9847 7.46094 46.9386V16.477L41.0001 7.61548L74.4694 16.477V46.9386C74.4694 69.7847 56.9677 77.7462 41.7671 82.1078L41.0001 82.3155ZM10.2501 18.6232V47.0078C10.2501 58.0155 13.7364 71.7232 40.9303 79.477C55.2245 75.3924 71.6106 67.9847 71.6106 47.0078V18.6232L40.9303 10.4539L10.2501 18.6232Z" fill="#08AF00"/>
<path d="M41.0001 66.8769L21.6855 47.9077C19.1753 45.4154 17.7808 42.1616 17.7808 38.6308C17.7808 35.1 19.1753 31.8462 21.6855 29.3539L21.825 29.2154C24.3352 26.7231 27.6821 25.4077 31.2382 25.4077C34.7944 25.4077 38.1413 26.7923 40.6515 29.2154L40.9304 29.4923L41.2093 29.2154C43.7195 26.7231 47.0665 25.4077 50.6226 25.4077C54.1787 25.4077 57.5257 26.7923 60.0359 29.2154L60.245 29.4231C62.7552 31.9154 64.1498 35.1693 64.1498 38.7C64.1498 42.2308 62.7552 45.4846 60.245 47.9769L41.0001 66.8769ZM31.2382 28.1077C28.4491 28.1077 25.7297 29.2154 23.7774 31.1539L23.6379 31.2923C21.6158 33.2308 20.5699 35.8616 20.5699 38.6308C20.5699 41.4 21.6855 43.9616 23.6379 45.9L41.0001 63L58.3624 45.9693C60.3845 44.0308 61.4304 41.4 61.4304 38.6308C61.4304 35.8616 60.3148 33.3 58.3624 31.2923L58.1532 31.1539C56.1311 29.2154 53.4814 28.1077 50.6923 28.1077C47.9032 28.1077 45.2535 29.2154 43.2314 31.1539L41.0001 33.3693L38.6991 31.1539C36.7467 29.2154 34.0971 28.1077 31.2382 28.1077Z" fill="#08AF00"/>
</svg>

<svg width="82" height="90" fill="none" xmlns="http://www.w3.org/2000/svg"><path d="M41 90l-2.929-.83C21.755 84.46 0 74.976 0 47.007V10.869L41 0l.349.07L82 10.87v36.069C82 74.977 60.245 84.462 43.929 89.1L41 90zM2.79 13.015v33.993c0 26.169 20.569 35.1 36.048 39.53l2.092.624 2.162-.624c15.48-4.43 36.05-13.361 36.05-39.53V13.015L41 2.838 2.79 13.015z" fill="#08AF00"/><path d="M41 82.316l-.837-.208C11.157 73.8 7.461 58.985 7.461 46.938v-30.46L41 7.615l33.468 8.862v30.462c0 22.846-17.501 30.807-32.702 35.169l-.767.207zM10.25 18.623v28.385c0 11.008 3.486 24.715 30.68 32.469 14.294-4.085 30.68-11.492 30.68-32.47V18.624l-30.68-8.17-30.68 8.17z" fill="#08AF00"/><path d="M41 66.877l-19.314-18.97c-2.51-2.492-3.905-5.745-3.905-9.276 0-3.531 1.394-6.785 3.905-9.277l.139-.139c2.51-2.492 5.857-3.807 9.413-3.807a13.52 13.52 0 019.413 3.807l.28.277.278-.277c2.51-2.492 5.857-3.807 9.414-3.807a13.52 13.52 0 019.413 3.807l.209.208c2.51 2.492 3.905 5.746 3.905 9.277 0 3.53-1.395 6.785-3.905 9.277L41 66.877zm-9.762-38.77c-2.789 0-5.508 1.108-7.46 3.047l-.14.138c-2.022 1.939-3.068 4.57-3.068 7.339s1.116 5.33 3.068 7.269L41 63l17.362-17.03c2.023-1.94 3.068-4.57 3.068-7.34 0-2.768-1.115-5.33-3.068-7.338l-.209-.138c-2.022-1.939-4.672-3.046-7.46-3.046-2.79 0-5.44 1.107-7.462 3.046l-2.23 2.215-2.302-2.215c-1.952-1.939-4.602-3.046-7.46-3.046z" fill="#08AF00"/></svg>
